!!!COM: de Machuat, Guillaume
!!!OTL: Se je souspir
!! Guillaume de Machaut, "Se je souspir" No. 30 from Volume 5 of
!! "Oeuvres Comple\tes" E/ditions de l'Oiseau-lyre (Monaco) -1977; p.51
!! The second ending is encoded.
**kern	**kern
*M2/4	*M2/4
=1	=1
2r	4r
.	8r
.	8E
=2	=2
8r	4F
4c	.
.	4G
8B-	.
=3	=3
8A	4A
8G	.
8A	8Bn
8F	8c
=4	=4
4G	8d
.	8c
4D	8B-
.	8A
=5	=5
8r	4G
4E	.
.	4r
8C	.
=6	=6
2C	8e
.	8d
.	8e
.	8c
=7	=7
4G	4B
4C	4c
=8	=8
8A	8F
4G	8B-
.	8A
8F	8B-
=9	=9
4E	4G
4A	8r
.	8D
=10	=10
8r	4E
4G	.
.	4D
8F	.
=11	=11
2G	2C
=12	=12
2C	4r
.	4c
=13	=13
8r	8B-
4c	8A
.	8G
8A	8A
=14	=14
8B-	4F
8A	.
8B-	4G
8G	.
=15	=15
4F	4A
4G	8r
.	8C
=16	=16
8r	8D
4A	8F
.	8E
8G	8D
=17	=17
2F	2F
=18	=18
[2F	4r
.	8r
.	8f
=19	=19
2F]	4f
.	4f
=20	=20
8B-	4.f
4d	.
[8c	8e
=21	=21
8c]	8e
4B-	4d
8A	8c#
=22	=22
2G	8d
.	8r
.	4B
=23	=23
[2C	8c
.	8e
.	8d
.	8e
=24	=24
4C]	8c
.	8r
4G	4E
=25	=25
8A	8F
4G	8A
.	8G
8D	8A
=26	=26
2F	2F
==	==
*-	*-
